svg/store_alert.svg

<svg xmlns="http://www.w3.org/2000/svg" viewBox="0 0 24 24"><path d="m2 7-1 5v2h1v6h10v-6h4v6h2v-6h1v-2l-1-5zm8 11H4v-4h6zm8-12H2V4h16zm5 1v6h-2V7zm-2 8h2v2h-2z"/></svg>

<svg xmlns="http://www.w3.org/2000/svg" id="mdi-store-alert" viewBox="0 0 24 24"><path d="M2 7L1 12V14H2V20H12V14H16V20H18V14H19V12L18 7H2M10 18H4V14H10V18M18 6H2V4H18V6M23 7V13H21V7H23M21 15H23V17H21V15Z" /></svg>
